!!!!SEGMENT: pl-kk--kk-i-6--038-004_anonim--missa-de-beata-virgine-maria-sanctus.krn
!!!id: 16xx:1024
!!!COM: Anonim
!!!COM-rism: pe30004985
!!!CDT:
!!!CNT:
!!!OTL: Missa de Beata Virgine Maria – Sanctus
!!!PDT:
!!!SMS-siglum: PL-Kk
!!!SMS-shelfmark: Kk.I.6
!!!NIFC-rismID: 1001136486
!!!URL-scan: http://repozytorium.nifc.pl/skany/pl-kk-nut--i-6
!!!ONB-nifc: UWAGA: C (skan 0052-0057, s. 101-111), T (skan 0164-0169, s. 133-143), B (skan 0273-0279, s. 129-141) Części Mszy: 1. Kyrie, 2. Et in terra, 3. Patrem, 4. Sanctus, 5. Agnus Dei. Uwaga: zmienna liczba głosów w niektórych ustępach
!!!SMS-variant:
!!!SMS-altvar:
**kern	**text	**kern	**text	**kern	**text
*part3	*part3	*part2	*part2	*part1	*part1
*staff3	*staff3	*staff2	*staff2	*staff1	*staff1
*I"Baſsus.	*	*I"Tenor.	*	*I"Cantus.	*
*I'B	*	*I'T	*	*I'S	*
*clefC4	*	*clefC3	*	*clefC3	*
*k[]	*	*k[]	*	*k[]	*
*M2/1	*	*M2/1	*	*M2/1	*
*met(C|)	*	*met(C|)	*	*met(C|)	*
=1-	=1-	=1-	=1-	=1-	=1-
!!LO:TX:t=P:problem:all\left or center:global
!LO:TX:b:t=1689.	!	!	!	!	!
!LO:TX:a:t=21. Julij.	!	!	!	!	!
!LO:TX:t=P:problem:przed kluczem inicjał S	!	!	!LO:TX:t=P:problem:przed kluczem inicjał S	!	!LO:TX:t=P:problem:przed kluczem inicjał S
1r	.	00r	.	0g	SAn-
0c	SAn-	.	.	.	.
=2-	=2-	=2-	=2-	=2-	=2-
.	.	.	.	1e	-ctus
1A	.	.	.	1.c	.
=3-	=3-	=3-	=3-	=3-	=3-
1F	-ctus	0r	.	.	.
.	.	.	.	2c/	San-
2r	.	.	.	2d\	.
2.F/	San-	.	.	2.f\	.
=4-	=4-	=4-	=4-	=4-	=4-
.	.	1r	.	.	.
4G/	.	.	.	4e\	.
2A/	.	.	.	4e\	.
.	.	.	.	8d\L	.
.	.	.	.	8c\J	.
1G	.	0g	SAn-	1d	.
=5-	=5-	=5-	=5-	=5-	=5-
0C	-ctus	.	.	2c/	-ctus
*	*	*	*	*	*ij
.	.	.	.	2.g\	San-
.	.	1e	.	.	.
.	.	.	.	4f\	.
.	.	.	.	4e\	.
.	.	.	.	4d\	.
=6-	=6-	=6-	=6-	=6-	=6-
1r	.	1c	-ctus	0e	.
*	*ij	*	*	*	*
0c	San-	2re	.	.	.
*	*	*	*ij	*	*
.	.	2.g\	San-	.	.
=7-	=7-	=7-	=7-	=7-	=7-
!	!	!	!	!LO:SIC:v:t=custos e	!
.	.	.	.	2c/	-ctus
*	*	*	*	*	*Xij
.	.	4f\	.	.	.
!	!	!	!	!LO:LB:g=original	!
.	.	2.e\	.	1g	San-
1A	.	.	.	.	.
.	.	4d\	.	.	.
.	.	1c\	.	2f\	.
=8-	=8-	=8-	=8-	=8-	=8-
1G	.	.	.	2e\	.
.	.	2B/	.	2.d\	.
1A	.	1c	.	.	.
.	.	.	.	4c/	.
.	.	.	.	2.c/	.
=9-	=9-	=9-	=9-	=9-	=9-
1G	-ctus	1d	.	.	.
*	*Xij	*	*	*	*
.	.	.	.	8B/L	.
.	.	.	.	8A/J	.
.	.	.	.	2B/	.
2.C/	San-	0e	-ctus	2c/	-ctus
*	*	*	*Xij	*	*
.	.	.	.	2.G/	San-
4D/	.	.	.	.	.
=10-	=10-	=10-	=10-	=10-	=10-
2.E/	.	.	.	.	.
.	.	.	.	4A/	.
.	.	.	.	2.B/	.
!LO:SIC:v:t=custos G	!	!	!	!	!
4F/	.	.	.	.	.
!LO:LB:g=original	!	!	!	!	!
1G	.	2.d\	San-	.	.
.	.	.	.	4c/	.
.	.	.	.	4d\	.
.	.	4e\	.	4B/	.
=11-	=11-	=11-	=11-	=11-	=11-
0A	.	2f\	.	2c/	.
.	.	2.e\	.	2A/	-ctus
*	*	*	*	*lig	*
.	.	.	.	1c	San-
!	!	!LO:SIC:v:t=custos c	!	!	!
.	.	4d\	.	.	.
!	!	!LO:LB:g=original	!	!	!
.	.	2.c/	.	.	.
=12-	=12-	=12-	=12-	=12-	=12-
*	*	*	*	*cue	*
1G,<	-ctus	.	.	2.d\	.
.	.	8B/L	.	.	.
.	.	8A/J	.	.	.
.	.	2B/	.	.	.
*	*	*	*	*Xlig	*
*	*	*	*	*Xcue	*
.	.	.	.	4e\	.
*	*ij	*	*	*	*
2.F/	San-	2c/	-ctus	1f	.
*	*	*	*ij	*	*
.	.	2.c/	San-	.	.
4G/	.	.	.	.	.
=13-	=13-	=13-	=13-	=13-	=13-
!	!	!	!	!LO:SIC:v:t=custos A	!
2.A/	.	.	.	2e\	-ctus
.	.	4d\	.	.	.
*	*	*	*	*	*ij
!	!	!	!	!LO:PB:g=original	!
.	.	2.e\	.	2.c/	San-
4B\	.	.	.	.	.
0c	ctus	.	.	.	.
.	.	4f\	.	4d\	.
.	.	1g\	.	2.e\	.
=14-	=14-	=14-	=14-	=14-	=14-
.	.	.	.	.	.
.	.	.	.	4f\	.
.	.	2e\	-ctus	2g\	.
*	*	*	*Xij	*	*
1d	San-	2r	.	1f	.
.	.	2d\	San-	.	.
=15-	=15-	=15-	=15-	=15-	=15-
1c	.	4e\	.	4g\	.
.	.	4f\	.	4f\	.
.	.	4g\	.	4e\	.
.	.	8e\L	.	4d\	.
.	.	8d\J	.	.	.
2F/	.	4f\	.	4c/	.
.	.	4e\	.	4B/	.
2G/	.	4d\	.	4B/	.
.	.	4c\	.	8A/L	.
.	.	.	.	8G/J	.
=16-	=16-	=16-	=16-	=16-	=16-
1D	.	1d	.	1A	.
2G/	-ctus	2B/	-ctus	2G/	-ctus
*	*Xij	*	*ij	*	*Xij
4C/	San-	1e\	San-	1c\	San-
4D/	.	.	.	.	.
=17-	=17-	=17-	=17-	=17-	=17-
4E/	.	.	.	.	.
4F/	.	.	.	.	.
!	!	!LO:SIC:v:t=custos e	!	!	!
2G/	.	2d\	.	2B/	.
!	!	!LO:LB:g=original	!	!	!
0C	ctus	2.e\	.	0.c	-ctus
.	.	4f\	.	.	.
=18-	=18-	=18-	=18-	=18-	=18-
.	.	1g	.	.	.
2rD	.	1g	-ctus	.	.
*	*	*	*Xij	*	*
1E/	Do-	.	.	.	.
=19-	=19-	=19-	=19-	=19-	=19-
.	.	2re	.	2r	.
!LO:SIC:v:t=custos E	!	!	!	!	!
2C/	-mi-	1e	Do-	1c	Do-
!LO:LB:g=original	!	!	!	!	!
1E	-nus	.	.	.	.
.	.	2e\	-mi-	2B/	-mi-
=20-	=20-	=20-	=20-	=20-	=20-
!	!	!	!	!LO:SIC:v:t=custos A	!
1F	De-	2c/	-nus	1A	-nus
.	.	1f	De-	.	.
!	!	!	!	!LO:LB:g=original	!
0C	-us	.	.	1c	De-
.	.	4e\	.	.	.
.	.	4d\	.	.	.
=21-	=21-	=21-	=21-	=21-	=21-
.	.	2e\	.	1c	-us
.	.	2c/	-us	.	.
00r	.	2d\	.	1G	Sab-
.	.	2e\	.	.	.
=22-	=22-	=22-	=22-	=22-	=22-
.	.	2f\	.	2A/	-ba-
.	.	2d\	.	2B/	.
.	.	2.e\	Sab-	2.c/	.
.	.	4d\	-ba-	4B/	.
=23-	=23-	=23-	=23-	=23-	=23-
.	.	4e\	.	2A/	.
.	.	4f\	.	.	.
.	.	1g	.	2G/	.
1r	.	.	.	1A	.
.	.	2f\	oth	.	.
=24-	=24-	=24-	=24-	=24-	=24-
2r	.	2.g\	.	2G/	-oth
2G/	Sab-	.	.	2d\	Sab-
!	!	!LO:SIC:v:t=custos e	!	!	!
.	.	4f\	.	.	.
!	!	!LO:PB:g=original	!	!	!
2A/	.	2e\	.	2c/	-ba-
2B\	.	2d\	.	2d\	.
=25-	=25-	=25-	=25-	=25-	=25-
1.c	.	2c/	Sab-	2e\	-oth
.	.	1g	.	4c/	Sab-
.	.	.	.	4d\	.
.	.	.	.	4e\	.
.	.	.	.	4f\	.
2B\	-ba-	2g\	-ba-	1g\	.
=26-	=26-	=26-	=26-	=26-	=26-
1A,<	-oth	1c	-oth	.	.
.	.	.	.	2f\	.
*	*ij	*	*	*	*
2.G/	Sab-	1r	.	2g\	-ba-
!	!	!	!	!LO:SIC:v:t=custos A	!
.	.	.	.	1G/	-oth
4F/	.	.	.	.	.
=27-	=27-	=27-	=27-	=27-	=27-
1E	.	1g	Ple-	.	.
*	*	*	*	*	*ij
!	!	!	!	!LO:LB:g=original	!
.	.	.	.	2.c/	Sab-
1D	-ba-	1f	-ni	.	.
.	.	.	.	8B/L	.
.	.	.	.	8A/J	.
.	.	.	.	2B/	-ba-
=28-	=28-	=28-	=28-	=28-	=28-
1C,<	-oth	0e	ſunt	1c	-oth
*	*Xij	*	*	*	*Xij
1c	Ple-	.	.	0r	.
=29-	=29-	=29-	=29-	=29-	=29-
1B-X	-ni	1d	cae-	.	.
1A	ſunt	1c	-li	2r	.
.	.	.	.	1c\	Ple-
=30-	=30-	=30-	=30-	=30-	=30-
!LO:SIC:v:t=custos F	!	!	!	!	!
1G	cae-	2r	.	.	.
.	.	2g\	cae-	2B/	-ni
!LO:LB:g=original	!	!	!	!	!
2F/	-li	2a\	-li	1c	Sunt
2E/	et	2g\	et	.	.
=31-	=31-	=31-	=31-	=31-	=31-
1D	ter-	1f	ter-	1d	cae-
1C	-ra	2e\	-ra	2G/	-li
.	.	2e\	et	2G/	et
=32-	=32-	=32-	=32-	=32-	=32-
2r	.	1c	ter-	1A	ter-
1c	Ple-	.	.	.	.
.	.	2d\	-ra	2G/	-ra
*	*	*	*	*	*ij
!	!	!LO:SIC:v:t=custos e	!	!	!
2Bny\	-ni	2d\	ple-	1g\	Ple-
=33-	=33-	=33-	=33-	=33-	=33-
!	!	!LO:LB:g=original	!	!	!
1A	ſunt	2e\	-ni	.	.
.	.	2c/	ſunt	2f\	-ni
1G	.	1g	cae-	2e\	Sunt
.	.	.	.	1d\	cae-
=34-	=34-	=34-	=34-	=34-	=34-
1F	cae-	2a\	-li	.	.
.	.	1f	et	1c	-li
1C	.	.	.	.	.
.	.	2e\	ter-	2c/	et
=35-	=35-	=35-	=35-	=35-	=35-
2D/	-li	2f\	.	4A/	.
.	.	.	.	4B/	.
2C/	et	2.g\	.	1c	ter-
1G	ter-	.	.	.	.
.	.	8f\L	.	.	.
.	.	8e\J	.	.	.
!	!	!	!	!LO:SIC:v:t=custos A	!
.	.	2d\	.	2B/	.
=36-	=36-	=36-	=36-	=36-	=36-
!	!	!	!	!LO:LB:g=original	!
1C,<	-ra	0.e	-ra	0c	-ra
*	*	*	*	*	*Xij
2.C/	glo-	.	.	.	.
4D/	.	.	.	.	.
=37-	=37-	=37-	=37-	=37-	=37-
1.E	.	.	.	2.G/	glo-
.	.	.	.	4A/	.
.	.	0r	.	1.B	.
2E/	-ri-	.	.	.	.
=38-	=38-	=38-	=38-	=38-	=38-
4D/	-a	.	.	.	.
4C/	.	.	.	.	.
4D/	.	.	.	2B/	-ri-
4E/	.	.	.	.	.
2F/	.	2.c/	glo-	4A/	-a
.	.	.	.	4G/	.
!LO:SIC:v:t=custos C	!	!	!	!	!
2F/	tu-	.	.	4A/	.
.	.	4d\	.	4B/	.
=39-	=39-	=39-	=39-	=39-	=39-
!LO:LB:g=original	!	!	!	!	!
1C	-a	1.e	-ri-	2c/	.
.	.	.	.	2c/	tu-
2rD	.	.	.	1G	-a
1G/	Glo-	2e\	-a	.	.
=40-	=40-	=40-	=40-	=40-	=40-
.	.	4d\	.	1rc	.
.	.	4c/	.	.	.
2G/	-ri-	4d\	.	.	.
.	.	4e\	.	.	.
1F	-a	1f	tu-	2rA	.
.	.	.	.	2.c/	glo-
=41-	=41-	=41-	=41-	=41-	=41-
!	!	!LO:SIC:v:t=custos g	!	!	!
1A	tu-	1e	.	.	.
.	.	.	.	4c/	-ri-
.	.	.	.	2c/	-a
!	!	!LO:LB:g=original	!	!	!
0G	-a	0g	-a	0d	tu-
=42-	=42-	=42-	=42-	=42-	=42-
.	.	.	.	.	.
2rF	.	2r	.	1%5c	-a
2.C/	Glo-	2.e\	glo-	.	.
=43-	=43-	=43-	=43-	=43-	=43-
.	.	.	.	.	.
4C/	-ri-	4e\	-ri-	.	.
2C/	-a	2e\	-a	.	.
0F	tu-	0f	tu-	.	.
=44-	=44-	=44-	=44-	=44-	=44-
.	.	.	.	.	.
!LO:SIC:v:t=custos  (tekstowy) oſanna	!	!	!	!	!
!LO:TX:b:t=oſanna	!	!	!	!	!
!LO:N:vis=0	!	!LO:N:vis=0	!	!	!
1C	-a.	1e	-a	.	.
=45||	=45||	=45||	=45||	=45||	=45||
*M3/1	*	*M3/1	*	*M3/1	*
!LO:TX:t=P:problem:przed metrum inicjał O	!	!LO:TX:t=P:problem:przed metrum inicjał O	!	!LO:TX:t=P:problem:przed kluczem inicjał O	!
!LO:PB:g=original	!	!	!	!LO:LB:g=original	!
00.r	.	0.r	.	00.r	.
=46-	=46-	=46-	=46-	=46-	=46-
.	.	1r	.	.	.
.	.	0d	O-	.	.
=47-	=47-	=47-	=47-	=47-	=47-
00.r	.	1d	-ſan-	0.r	.
.	.	1e	.	.	.
.	.	1f	.	.	.
=48-	=48-	=48-	=48-	=48-	=48-
*	*	*col	*	*	*
.	.	1d	.	1r	.
!	!	!LO:SIC:v:t=custos g	!	!LO:TX:t=P:problem:kreska pseudotaktowa	!
.	.	0e	-na	0c	O-
*	*	*Xcol	*	*	*
=49-	=49-	=49-	=49-	=49-	=49-
!	!	!LO:LB:g=original	!	!	!
0G	O-	0.r	.	1d	-Sa-
.	.	.	.	1e	.
!LO:TX:t=P:problem:kreska pseudotaktowa	!	!	!	!LO:TX:t=P:problem:kreska pseudotaktowa	!
1A	-San-	.	.	1f	-na
=50-	=50-	=50-	=50-	=50-	=50-
1B	.	1.g	O-	1d	in
1.c	.	.	.	1e	ex-
.	.	2f\	.	.	.
.	.	2e\	.	2c/	-cel-
!LO:TX:t=P:problem:kreska pseudotaktowa	!	!	!	!LO:TX:t=P:problem:kreska pseudotaktowa	!
2B\	.	2d\	.	2d\	.
=51-	=51-	=51-	=51-	=51-	=51-
1A	.	1c	.	2e\	.
.	.	.	.	2f\	.
1G	.	1d	.	1g	.
!LO:TX:t=P:problem:kreska pseudotaktowa:przebiega przez brevis	!	!	!	!LO:TX:t=P:problem:kreska pseudotaktowa	!
0A	.	0c	-ſan-	1e	.
=52-	=52-	=52-	=52-	=52-	=52-
.	.	.	.	1f	.
!	!	!	!	!LO:SIC:v:t=custos G	!
!	!	!	!	!LO:TX:t=P:problem:kreska pseudotaktowa	!
1G	.	1d	-na	0g	-ſis
!LO:TX:t=P:problem:kreska pseudotaktowa:przebiega przez brevis	!	!	!	!	!
0C	-na	0e	in	.	.
=53-	=53-	=53-	=53-	=53-	=53-
*	*	*	*	*	*ij
!	!	!	!	!LO:LB:g=original	!
.	.	.	.	1G	O-
1D	O-	1f	ex-	1d	-San-
!LO:TX:t=P:problem:kreska pseudotaktowa	!	!	!	!LO:TX:t=P:problem:kreska pseudotaktowa	!
1E	-San-	1e	-cel-	1B	-na
=54-	=54-	=54-	=54-	=54-	=54-
*	*	*col	*	*	*
1.F	.	0c	-ſis	0A	in
2E/	.	.	.	.	.
1D	.	1d	in	1A	ex-
=55-	=55-	=55-	=55-	=55-	=55-
*col	*	*	*	*	*
1C	.	1G	ex-	0d	-cel-
!LO:SIC:v:t=custos C	!	!	!	!	!
0D	.	0d	-cel-	.	.
.	.	.	.	1B	.
=56-	=56-	=56-	=56-	=56-	=56-
*	*	*Xcol	*	*	*
!LO:LB:g=original	!	!	!	!	!
0C	na	1G	-ſis	0.c	-ſis
*	*	*	*	*	*Xij
!	!	!LO:SIC:v:t=custos e	!	!	!
.	.	0g	in	.	.
0c	in	.	.	.	.
=57-	=57-	=57-	=57-	=57-	=57-
!	!	!LO:LB:g=original	!	!	!
.	.	1e	ex-	00.r	.
1A	ex-	1f	-cel-	.	.
!LO:TX:t=P:problem:kreska pseudotaktowa	!	!	!	!	!
1B	-cel-	1.g	.	.	.
*Xcol	*	*	*	*	*
=58-	=58-	=58-	=58-	=58-	=58-
1.c	.	.	.	.	.
.	.	2f\	.	.	.
.	.	2e\	.	.	.
2B\	.	2d\	.	.	.
2A/	.	1e	.	.	.
!LO:TX:t=P:problem:kreska pseudotaktowa	!	!	!	!	!
2G/	.	.	.	.	.
=59-	=59-	=59-	=59-	=59-	=59-
*col	*	*	*	*	*
1A	.	1c	.	1r	.
!	!	!	!	!LO:TX:t=P:problem:kreska pseudotaktowa	!
1G	.	1d	.	0g	in
!LO:TX:t=P:problem:kreska pseudotaktowa:przebiega przez brevis	!	!	!	!	!
0C,<	-ſis	0c	-ſis	.	.
=60-	=60-	=60-	=60-	=60-	=60-
.	.	.	.	1e	ex-
!LO:TX:t=P:problem:kreska pseudotaktowa	!	!	!	!	!
0G	in	1r	.	2f\	-cel-
.	.	.	.	2e\	.
.	.	1r	.	2d\	.
!	!	!	!	!LO:TX:t=P:problem:kreska pseudotaktowa	!
.	.	.	.	2c/	.
=61-	=61-	=61-	=61-	=61-	=61-
*Xcol	*	*	*	*	*
1D	ex-	0.r	.	1d	.
1E	-cel-	.	.	2c/	.
.	.	.	.	2B/	.
!LO:TX:t=P:problem:kreska pseudotaktowa:między nutą i kropką	!	!	!	!LO:TX:t=P:problem:kreska pseudotaktowa:między nutą i kropką	!
1.F	.	.	.	1.A	.
=62-	=62-	=62-	=62-	=62-	=62-
*	*	*	*ij	*	*
.	.	0f	O-	.	.
2E/	.	.	.	2G/	.
1D	.	.	.	2A/	.
!	!	!	!	!LO:SIC:v:t=custos c	!
.	.	.	.	2B/	.
!LO:SIC:v:t=custos G	!	!	!	!LO:LB:g=original	!
!	!	!	!	!LO:TX:t=P:problem:kreska pseudotaktowa	!
1C	.	1e	-ſan-	1c	.
=63-	=63-	=63-	=63-	=63-	=63-
*	*	*	*	*col	*
!LO:LB:g=original	!	!	!	!	!
0.G	.	1.d	na	1.B	.
.	.	2c/	.	2A/	.
!	!	!	!	!LO:TX:t=P:problem:kreska pseudotaktowa	!
.	.	1d	in	1B	.
=64-	=64-	=64-	=64-	=64-	=64-
!LO:TX:t=P:problem:kreska pseudotaktowa	!	!	!	!	!
0.C	-ſis	0e	ex-	0c	ſis
!	!	!LO:SIC:v:t=custos g	!	!	!
!	!	!	!	!LO:TX:t=P:problem:kreska pseudotaktowa:przebiega przez brevis	!
.	.	1e	-cel-	0c	in
=65-	=65-	=65-	=65-	=65-	=65-
!	!	!LO:LB:g=original	!	!	!
00.r	.	1g	-ſis	.	.
*	*	*	*Xij	*	*
.	.	1c	O-	1A	ex-
!	!	!	!	!LO:TX:t=P:problem:kreska pseudotaktowa	!
.	.	1d	-ſan-	1B	-cel-
=66-	=66-	=66-	=66-	=66-	=66-
*	*	*	*	*Xcol	*
.	.	0e	-na	1.c	.
.	.	.	.	2B/	.
.	.	1c	in	2A/	.
!	!	!	!	!LO:TX:t=P:problem:kreska pseudotaktowa	!
.	.	.	.	2G/	.
=67-	=67-	=67-	=67-	=67-	=67-
1r	.	0c	ex-	1A	.
1r	.	.	.	0G	-ſis
1G	in	1B	-cel-	.	.
=68-	=68-	=68-	=68-	=68-	=68-
*	*	*col	*	*	*
1E	ex-	1c	-ſis	1rc	.
*	*	*	*	*col	*
!	!	!	!	!LO:TX:t=P:problem:kreska pseudotaktowa	!
1F	-cel-	1A	.	0d	in
*	*	*	*ij	*	*
!LO:TX:t=P:problem:kreska pseudotaktowa:między nutą i kropką	!	!	!	!	!
1.G	.	0B	in	.	.
=69-	=69-	=69-	=69-	=69-	=69-
.	.	.	.	1c	ex-
2F/	.	.	.	.	.
2E/	.	0G	ex-	1B	.
2D/	.	.	.	.	.
!LO:TX:t=P:problem:kreska pseudotaktowa	!	!	!	!LO:TX:t=P:problem:kreska pseudotaktowa:przebiega przez brevis	!
1E	.	.	.	0c	-cel-
=70-	=70-	=70-	=70-	=70-	=70-
*col	*	*	*	*Xcol	*
1C	.	1G	-cel-	.	.
0D	.	0d	.	0B	.
=71-	=71-	=71-	=71-	=71-	=71-
!LO:N:vis=00	!	!	!	!	!
*Xcol	*	*	*	*	*
!	!	!LO:N:vis=00	!	!	!
*	*	*Xcol	*	*	*
0.C	ſis.	0.G	-ſis.	0.c	-ſis.
*	*	*	*Xij	*	*
=72||	=72||	=72||	=72||	=72||	=72||
*M2/1	*	*M2/1	*	*M2/1	*
*met(C|)	*	*met(C|)	*	*met(C|)	*
!	!	!LO:TX:a:t=Benedict(us)\nTacet\nOSanna vt Supr[a]	!	!	!
!LO:TX:t=P:problem:przed kluczem inicjał B	!	!	!	!LO:TX:t=P:problem:przed kluczem inicjał B	!
!LO:LB:g=original	!	!LO:LB:g=original	!	!LO:PB:g=original	!
00r	.	0ryy	.	0c	BE-
=73-	=73-	=73-	=73-	=73-	=73-
.	.	0ryy	.	1e	-ne-
.	.	.	.	2d\	-di-
.	.	.	.	1g\	-ctus
=74-	=74-	=74-	=74-	=74-	=74-
0r	.	0ryy	.	.	.
!	!	!	!	!LO:TX:b:t=P:problem:♯ below	!
.	.	.	.	2f#X\	qui
.	.	.	.	4g\	Ve-
.	.	.	.	4fny\	.
.	.	.	.	4e\	.
.	.	.	.	4d\	.
=75-	=75-	=75-	=75-	=75-	=75-
0C	BE-	0ryy	.	4e\	.
.	.	.	.	4f\	.
.	.	.	.	2.g\	.
.	.	.	.	4f\	.
.	.	.	.	4e\	.
.	.	.	.	4d\	.
=76-	=76-	=76-	=76-	=76-	=76-
1E	-ne-	0ryy	.	4c/	.
.	.	.	.	4B/	.
.	.	.	.	4B/	.
.	.	.	.	8A/L	.
.	.	.	.	8G/J	.
1D	-di-	.	.	1A	.
=77-	=77-	=77-	=77-	=77-	=77-
1.G	-ctus	0ryy	.	2G/	-nit
!	!	!	!	!LO:SIC:v:t=custos e	!
.	.	.	.	2d\	qui
!	!	!	!	!LO:LB:g=original	!
.	.	.	.	4e\	.
.	.	.	.	4d\	.
2G/	qui	.	.	2.g\	Ve-
=78-	=78-	=78-	=78-	=78-	=78-
1A	Ve-	0ryy	.	.	.
.	.	.	.	4f\	.
.	.	.	.	4f\	.
.	.	.	.	8e\L	.
.	.	.	.	8d\J	.
0G	.	.	.	2e\	.
.	.	.	.	4d\	.
.	.	.	.	4c/	.
=79-	=79-	=79-	=79-	=79-	=79-
.	.	0ryy	.	1d	-nit
1C,<	-nit	.	.	2c/	qui
.	.	.	.	2e\	.
=80-	=80-	=80-	=80-	=80-	=80-
0c	Be-	0ryy	.	2.e\	Ve-
.	.	.	.	4f\	.
.	.	.	.	2g\	.
.	.	.	.	2.a\	.
=81-	=81-	=81-	=81-	=81-	=81-
1e	-ne-	0ryy	.	.	.
.	.	.	.	4g\	.
.	.	.	.	2.g\	.
1d	-di-	.	.	.	.
!	!	!	!	!LO:TX:b:t=P:problem:♯ below	!
.	.	.	.	8f#X\L	.
.	.	.	.	8e\J	.
!	!	!	!	!LO:TX:b:t=P:problem:♯ below	!
.	.	.	.	2f#X\	.
=82-	=82-	=82-	=82-	=82-	=82-
2G/	-ctus	0ryy	.	2g\	.
2G/	qui	.	.	2d\	-nit
*	*	*	*	*	*ij
1.c	Ve-	.	.	1.e	qui
=83-	=83-	=83-	=83-	=83-	=83-
.	.	0ryy	.	.	.
4B\	.	.	.	4d\	.
!LO:SIC:v:t=custos B	!	!	!	!LO:SIC:v:t=custos d	!
4A/	.	.	.	4c/	.
!LO:LB:g=original	!	!	!	!LO:LB:g=original	!
2B\	.	.	.	2d\	.
2.c\	.	.	.	2e\	Ve-
=84-	=84-	=84-	=84-	=84-	=84-
.	.	0ryy	.	1.A	-nit
*	*	*	*	*	*Xij
4B\	.	.	.	.	.
4A/	.	.	.	.	.
4G/	.	.	.	.	.
2F/	.	.	.	.	.
2E/	.	.	.	2G/	in
=85-	=85-	=85-	=85-	=85-	=85-
1F	.	0ryy	.	2.A/	No-
.	.	.	.	4A/	-mi-
1C	-nit	.	.	2G/	-ne
.	.	.	.	1c\	Do-
=86-	=86-	=86-	=86-	=86-	=86-
2rD	.	0ryy	.	.	.
2G/	in	.	.	2B/	-mi-
2.A/	no-	.	.	2c/	-ni
*	*	*	*	*	*ij
.	.	.	.	2c/	in
4A/	-mi-	.	.	.	.
=87-	=87-	=87-	=87-	=87-	=87-
2G,</	-ne	0ryy	.	2.e\	No-
1c	Do-	.	.	.	.
.	.	.	.	4e\	-mi-
.	.	.	.	2d\	-ne
4B\	.	.	.	2.g\	Do-
4A/	.	.	.	.	.
=88-	=88-	=88-	=88-	=88-	=88-
2B\	.	0ryy	.	.	.
.	.	.	.	4fny\	.
2c\	-mi-	.	.	4e\	.
.	.	.	.	4d\	.
1F,<	-ni	.	.	2c/	.
.	.	.	.	2.f\	.
=89-	=89-	=89-	=89-	=89-	=89-
2r	.	0ryy	.	.	.
.	.	.	.	4e\	.
*	*ij	*	*	*	*
2c\	in	.	.	4e\	.
.	.	.	.	8d\L	.
.	.	.	.	8e\J	.
2.d\	no-	.	.	2.f\	.
!LO:SIC:v:t=custos c	!	!	!	!LO:SIC:v:t=custos g	!
4d\	-mi-	.	.	4f\	-mi-
=90-	=90-	=90-	=90-	=90-	=90
!LO:LB:g=original	!	!	!	!LO:LB:g=original	!
2c\	-ne	0ryy	.	2g\	-ni
*	*	*	*	*	*Xij
2.f\	Do-	.	.	2.a\	Do-
4e\	.	.	.	4g\	.
4e\	.	.	.	4g\	.
8d\L	.	.	.	8f\L	.
8c\J	.	.	.	8e\J	.
=91-	=91-	=91-	=91-	=91-	=91-
*lig	*	*	*	*lig	*
1d	.	0ryy	.	1f	.
*col	*	*	*	*col	*
2.c\	.	.	.	2.e\	.
*Xlig	*	*	*	*Xlig	*
*Xcol	*	*	*	*Xcol	*
4B\	.	.	.	4d\	.
=92-	=92-	=92-	=92-	=92-	=92-
2A/	.	0ryy	.	2c/	.
2A/	-mi-	.	.	2c/	-mi-
1G	-ni	.	.	2d\	-ni
*	*Xij	*	*	*	*
.	.	.	.	1B/	D(o-
=93-	=93-	=93-	=93-	=93-	=93-
2rF	.	0ryy	.	.	.
2D/	in	.	.	2c/	-mi)-
2.E/	no-	.	.	2B/	-ni
.	.	.	.	2G/	in
4E/	-mi-	.	.	.	.
=94-	=94-	=94-	=94-	=94-	=94-
2D/	-ne	0ryy	.	2.B/	No-
1G	Do-	.	.	.	.
.	.	.	.	4B/	-mi-
.	.	.	.	2A/	-ne
!LO:TX:b:t=P:problem:♯ below	!	!	!	!	!
4F#X/	.	.	.	2.d\	Do-
4E/	.	.	.	.	.
=95-	=95-	=95-	=95-	=95-	=95-
!LO:TX:b:t=P:problem:♯ below	!	!	!	!	!
2F#X/	.	0ryy	.	.	.
.	.	.	.	4c/	.
2G/	mi-	.	.	4B/	.
.	.	.	.	4A/	.
!LO:SIC:v:t=custos (tekstowy) in	!	!	!	!	!
!LO:TX:b:t=in	!	!	!	!	!
!LO:SIC:v:t=custos G	!	!	!	!	!
!LO:TX:t=P:problem:kropka/nuta/plama E	!	!	!	!	!
1C,<	-ni	.	.	2G/	.
.	.	.	.	1c\	.
=96-	=96-	=96-	=96-	=96-	=96-
!LO:PB:g=original	!	!	!	!	!
2r	.	0ryy	.	.	.
!	!	!	!	!LO:SIC:v:t=custos c	!
2G/	in	.	.	2B/	-mi-
!	!	!	!	!LO:LB:g=original	!
2.A/	no-	.	.	1c	-ni
4A/	-mi-	.	.	.	.
=97-	=97-	=97-	=97-	=97-	=97-
2G/	-ne	0ryy	.	2r	.
1c	Do-	.	.	1e	D(o-
4B\	.	.	.	4d\	.
4A/	.	.	.	4c/	.
=98-	=98-	=98-	=98-	=98-	=98-
2B\	-mi-	0ryy	.	2d\	-mi)-
2c\	.	.	.	2e\	-ni
2Fny/	-ni	.	.	2f\	Do-
1F/	Do-	.	.	1f\	.
=99-	=99-	=99-	=99-	=99-	=99-
.	.	0ryy	.	.	.
2F/	-mi-	.	.	2f\	-mi-
!LO:TX:a:t=OSanna\nUt Supra	!	!	!	!LO:TX:a:t=Oſanna Vt\nSupra.	!
!LO:N:vis=00	!	!	!	!LO:N:vis=0	!
1c	-ni.	.	.	1e	-ni.
!LO:LB:g=original	!	!	!	!LO:LB:g=original	!
=||	=||	=||	=||	=||	=||
*-	*-	*-	*-	*-	*-
!!!system-decoration: [(s1,s2,s3)]
!!!ENC: Marta Chmielewska
!!!END: 2021-03-24
!!!RDF**kern: < = below
!!!RDF**kern: > = above
!!!ENC: Krzysztof Stępień
!!!END: 2021-03-09
